X: 120
T: Dennis Murphy's Polka
C: R-58
C: Irish
M: C|
Z: Transcribed to abc by Mary Lou Knack
R: polka
K: D
"D"fgfe d2B2| A2D2 F2A2| "A"G2E2 e3d| c2B2 B2A2|
"D"fgfe d2B2| A2D2 F2A2| "A"G2E2 e3f| "D"e2d2 d4:|
|:\
"D"A2f2 fef2| "G"B2g2 gfg2| "D"A2f2 fef2| "A"efed c2B2|
"D"A2f2 fef2| "G"B2g2 g3a| b2a2 "A"g2ef| "D"e2d2 d4:|
%%text 9/1/98.  From Leo Kretzner
